X:1
T:Ave Maria
T:Ignaz Mitterer
T:Ave Maria
T:CPDL   —   Creative Commons Attribution Non Commercial 3.0
T:CPDL   —   Creative Commons Attribution Non Commercial 3.0
C:Ignaz Mitterer
Z:CPDL   —   Creative Commons Attribution Non Commercial 3.0
%%score [ ( 1 2 ) ( 3 4 ) ]
L:1/8
M:4/4
K:D
V:1 treble nm="Sopran\nAlt"
V:2 treble 
V:3 bass nm="Tenor\nBass"
V:4 bass 
V:1
!p! F4 !fermata!F4 | G4 !fermata!E4 | F4 F2 F2 | B4 !fermata!E4 | F3 G A2 d2- | d2 c2 c4 | %6
w: A- ve,|a- ve,|a- ve Ma-|ri- a,|gra- ti- a, gra-|* ti- a|
!>(! c2 BA B4!>)! | A4 z4 | z8 | z4 A3 B | c4 d4 | c4!mf! d4 | B4 G2 A2 | B6 B2 | B6 c2 | %15
w: ple- * * *|na,|||* te-|cum, be-|ne- dic- ta|tu in|mu- li-|
 (d3 c!>(! B2) B2!>)! | !breath!!fermata!^A4[Q:1/4=120]"^poco string." F4 | F4 A4 | B4 c4 | d4 B4 | %20
w: e- * * ri-|bus, et|be- ne-|dic- tus|fruc- tus|
 e4 d4 | (c2 B4 ^A2) | !breath!!fermata!B4!f! A4 | B4 c4 | d4 e4 | f4 d4 | e4 d4 |!p! (d4 c2 B2 | %28
w: ven- tris|tu- * *|i, et|be- ne-|dic- tus|fruc- tus|ven- tris|tu- * *|
 c8) | !fermata!d8 |] %30
w: |i.|
V:2
 D4 ^D4 | E4 C4 | D4 D2 D2 | D4 C4 | D3 E F2 F2- | F2 E2 E2 A2- | A2 ^GF G4 | A4 E3 E | F4 G4 | %9
w: |||||* * * ple-||na Do- mi-|nus te-|
 F4 F3 F | E2 (A4 ^G2) | A4 F4- | F2 F2 E2 E2 | ^D6 D2 | (E3 F G2) G2 | (F4 G3) G | F4 C4 | D4 E4 | %18
w: cum, Do- mi-|nus te- *|cum, be-|* ne- dic- ta||||||
 G4 G4 | F4 G4 | G4 F4 | (E4 F4) | F4 F4 | G4 G4 | F4 G4 | A4 F4 | G4 F4 | E8- | E8 | F8 |] %30
w: ||||||||||||
V:3
!p! A,4 !fermata!B,4 | B,4 !fermata!A,4 | A,4 A,2 A,2 | (A,2 ^G,2) !fermata!A,4 | z4 A,4- | %5
w: ||||gra-|
 A,2 C2 C4 |!>(! (E6 D2)!>)! | C4 C3 B, | A,2 (D4 C2) | D4 D3 D | C4 B,4 | A,4!mf! A,4 | %12
w: * ti- a|ple- *|na * *||||* be-|
 B,4 B,2 A,2 | F,6 F,2 | (G,3 A, B,2) A,G, | (A,2 B,4) C2 | !fermata!C4 ^A,4 | B,4 C4 | D4 E4 | %19
w: ne- dic- ta|||||||
 A,4 B,4 | B,4 A,4 | (B,4 C4) | !fermata!D4!f! D4 | D4 E4 | D4 (C2 B,2) | C4 D4 | B,4 A,4 | %27
w: ||||||||
!p! (B,8 | A,8) | !fermata!A,8 |] %30
w: |||
V:4
 D,4 B,,4 | E,4 A,,4 | D,4 D,2 D,2 | B,,4 A,,4 | x4 (D,3 E, | F,2) A,2 A,4 | E,8 | A,,4 A,3 G, | %8
 F,4 E,4 | D,4 z4 | z8 | z4 D,4 | D,4 E,2 =C,2 | B,,6 B,,2 | E,6 E,2 | (D,4 E,3) E, | F,4 F,4 | %17
 B,4 A,4 | G,4 E,4 | D,4 G,4 | E,4 F,4 | (G,4 F,4) | B,,4 D,4 | G,4 E,4 | B,4 (A,2 G,2) | F,4 B,4 | %26
 E,4 F,4 | (G,8 | A,8) | D,8 |] %30

